X: 3
T: Jackets Green, The
Z: ceolachan
S: https://thesession.org/tunes/8683#setting19609
R: barndance
M: 4/4
L: 1/8
K: Gmaj
g3 f e2 dB | A2 G2 E2 GA |B2 BG A2 A2 | G6 B2 |d3 B d2 ef |g3 f e2 d2 |e3/2f/ ed BA Bd | e6 B2 |d3 B d2 ef |g3 f e2 d2 |e3/2f/ ed BA Bd | e6 ef |ga gf e2 dB |A3/2B/ AG E2 GA | B2 BG A2 A2 |G6 :|
